X: 25551
T: Marino Casino
R: reel
M: 4/4
K: Gmajor
|:Bc|"G" dg fg "C" e2 fg|"G" d<g "C" c2 "G" T B2 AG|"Am" c2 BA "G/B"d2 G2|"A7"{B}AGFG "D7"A2 Bc|
"G" dg fg "C" e2 fg|"G" d<g "C" c2 "G" T B2 AG|"Am" c2 {c}BA "D7" d2 F2|"G" G6:|
|:AG|"D" FGAF D2 d2|"G" cBAB G2 gf|"C" efge "G/B" d<g B2|"A7" TA3 B "D7" A2 AG|
"D" FGAF D2 d2|"G" cBAB G2 gf|"C" efge "G/B" d<g B2|"D7" TA3 G "G" G2:|

